public/icons/header/notify.svg

<svg width="16" height="20" viewBox="0 0 16 20" fill="none" xmlns="http://www.w3.org/2000/svg">
<path id="Vector" d="M15.6636 13.8085C15.5945 13.7192 15.5267 13.6299 15.4601 13.5438C14.5442 12.3558 13.9901 11.6388 13.9901 8.27589C13.9901 6.53482 13.6016 5.10625 12.836 4.03482C12.2715 3.2433 11.5084 2.64286 10.5026 2.19911C10.4896 2.19139 10.4781 2.18126 10.4684 2.1692C10.1067 0.870089 9.11666 0 8.0001 0C6.88354 0 5.89396 0.870089 5.53218 2.16786C5.52253 2.17948 5.51113 2.18928 5.49846 2.19688C3.15128 3.23304 2.01057 5.22098 2.01057 8.27455C2.01057 11.6388 1.45729 12.3558 0.540562 13.5424C0.473952 13.6286 0.406092 13.7161 0.336984 13.8071C0.158468 14.038 0.0453637 14.3189 0.0110561 14.6165C-0.0232514 14.9141 0.0226739 15.2161 0.143397 15.4866C0.400264 16.067 0.947719 16.4272 1.57261 16.4272H14.4322C15.0542 16.4272 15.5979 16.0674 15.8556 15.4897C15.9768 15.2191 16.0232 14.917 15.9892 14.619C15.9551 14.321 15.8422 14.0397 15.6636 13.8085ZM8.0001 20C8.60169 19.9995 9.19194 19.8244 9.70823 19.4932C10.2245 19.1621 10.6476 18.6873 10.9326 18.1192C10.9461 18.092 10.9527 18.0615 10.9519 18.0307C10.9511 17.9999 10.9429 17.9699 10.928 17.9435C10.9132 17.9171 10.8922 17.8953 10.8672 17.8802C10.8422 17.865 10.814 17.8571 10.7853 17.8571H5.21579C5.18703 17.857 5.15874 17.8649 5.13366 17.88C5.10859 17.8951 5.08759 17.9169 5.07271 17.9433C5.05782 17.9697 5.04957 17.9998 5.04874 18.0306C5.04792 18.0614 5.05455 18.0919 5.06799 18.1192C5.35298 18.6872 5.776 19.162 6.29221 19.4931C6.80843 19.8242 7.39858 19.9994 8.0001 20Z" fill="white"/>
</svg>

<svg xmlns="http://www.w3.org/2000/svg" fill="none" viewBox="0 0 16 20"><path fill="#fff" d="m15.66 13.8-.2-.26c-.92-1.18-1.47-1.9-1.47-5.26 0-1.75-.39-3.17-1.15-4.25a5.48 5.48 0 0 0-2.37-1.86C10.1.87 9.12 0 8 0S5.9.87 5.53 2.17a.13.13 0 0 1-.03.03C3.15 3.23 2 5.22 2 8.27c0 3.37-.55 4.09-1.47 5.27l-.2.27c-.18.23-.3.5-.33.8-.03.3.01.6.13.88.26.58.8.94 1.43.94h12.86c.62 0 1.17-.36 1.43-.94a1.67 1.67 0 0 0-.2-1.68ZM8 20c.6 0 1.2-.18 1.7-.5.52-.34.95-.81 1.23-1.38a.19.19 0 0 0 0-.18.17.17 0 0 0-.06-.06.16.16 0 0 0-.08-.02H5.22c-.03 0-.06 0-.09.02a.17.17 0 0 0-.06.06.19.19 0 0 0 0 .18c.28.57.7 1.04 1.22 1.37.52.33 1.1.5 1.71.51Z"/></svg>
